X:1
T:Ave Maria du Himmelkönigin
T:André Vierendeels
T:Melody By Georg Vogler (1625) ( T 1 voice) 
T:Source : Catechismus---Würzburg---J.Volmari---1652. Editor : André Vierendeels (27/09/17).
T:Notes : Original clef : C3, other voices supplied editorially Original note values have been halved Text Middle German
T:Ave Maria du Himmelkönigin
T:©
T:©
Z:©
%%score [ 1 2 3 ]
L:1/8
Q:1/4=120
M:2/2
K:F
V:1 treble-8 nm="Tenor 1" snm="T 1"
V:2 treble-8 nm="Tenor 2" snm="T 2"
V:3 bass nm="Bass" snm="B"
V:1
"^1)" G4 G2 G2 | d4 d2 d2 | e2 f2 g2 e2 | d4 z4 | d4 g4 | f4 d4 |"^4)" c2 A2 B2 G2 | A4 z4 | %8
w: A- ve Ma-|ri- a, du|Him- mel- kö- ni-|gin,|al- ler|Welt ein|Trö- * ste- *|rin,|
w: A- ve Ma-|ri- a, du|ed- le Key- se-|rin|du bist|un- ser|Für- spre- * che-|rin,|
 B4 c2 c2 | d4 G2 G2 | B2 G2 B2 c2 | F4 z4 | z2 d2 d4 | e4 f4 | e4 d4 | c2 B2 A2 G2 | d4 z2 c2 | %17
w: hei- lig und|se- lig bist|du ge- boh- *|ren,|dann Gott|der hat|dich ausz-|er- * ko- *|ren, ausz|
w: hei- lig und|se- lig spricht|dich al- * le|Welt,|von Gott|bist wor-|den ausz-|er- * * *|wehlt, ein|
 B4 A4 | G4 F4 | B2 d2 c2 BA | G8 |] %21
w: al- len|Jung- Fra-|* wen rei- * *|ne.|
w: Mut- ter|desz Al-|ler- höch- * * *|sten.|
V:2
"^2)""^1)" G4 E2 G2 | A4 F2 A2 | G2 d2 e2 c2 | A4 z4 | F2 A2 d4 | A4 d4 | G2 E2 G2 D2 | A4 z4 | %8
w: A- ve Ma-|ri- a, du|Him- mel- kö- ni-|gin,|al- * ler|Welt ein|Trö- * ste- *|rin,|
w: A- ve Ma-|ri- a, du|schö- ner Ro- sen-|gart,|du _ wol-|ge- zier-|te Jung- * fraw|zart,|
 D4 A2 c2 | B4 G2 D2 | G2 E2 G4 | D4 z4 | z2 A2 A2 G2 | G4 A4 | c4 A4 | G4 A2 E2 | F4 z2 A2 | %17
w: hei- lig und|se- lig bist|du- ge- boh-|ren,|dann Gott _|der hat|dich ausz-|er- ko- *|ren, ausz|
w: hei- lig und|se- lig wirst|du ge- *|nant,|dich ha- ben|die Pro-|phe- ten|wol _ er-|kant, von|
 D4 F4 | D4 D4- | D2 F2 E2 F2 | D8 |] %21
w: al- len|Jung- Fra-|* wen rei- *|ne.|
w: dir ha-|ben sie|_ ge- schrie- *|ben;|
V:3
"^3)""^1)" G,4 C,2 D,2 | F,4 D,2 D,2 | C,2 D,2 C,2 C,2 | D,4 z4 | D,4 G,4 | D,4 F,4 | %6
w: A- ve Ma-|ri- a, du|Him- mel- kö- ni-|gin,|al- ler|Welt ein|
w: A- ve Ma-|ri- a, du|Zier der Chri- sten-|heit,|du Mut-|ter der|
 E,2 A,,2 D,2 B,,2 | D,4 z4 | B,,4 F,2 C,2 | B,,4 C,2 G,,2 | D,2 C,2 G,2 E,2 | D,4 z4 | %12
w: Trö- * ste- *|rin,|hei- lig und|se- lig bist|du ge- boh- *|ren,|
w: Barm- hert- * zig-|keit,|du Got- *|tes Stadt, du|kla- * * re|Sonn,|
 z2 F,2 D,2 G,2 | C,4 F,4 | A,4 D,4 | E,2 D,2 F,2 C,2 | D,4 z2 F,2 | B,,4 D,4 | G,,4 A,,4 | %19
w: dann Gott _|der hat|dich ausz-|er- * ko- *|ren, ausz|al- len|Jung- fra-|
w: du star- *|cker Thurn|du Ja-|* * cobs _|Bronn, du|Fraw der|gan- zen|
 B,,2 D,2 A,,2 D,2 | G,,8 |] %21
w: * wen rei- *|ne.|
w: Er- * * *|den,|

